images/icons/unsplash.svg

<svg fill="none" height="24" viewBox="0 0 24 24" width="24" xmlns="http://www.w3.org/2000/svg" xmlns:xlink="http://www.w3.org/1999/xlink"><clipPath id="a"><path d="m0 0h24v24h-24z"/></clipPath><g clip-path="url(#a)"><path d="m7.5 6.75v-6.75h9v6.75zm9 3.75h7.5v13.5h-24v-13.5h7.5v6.75h9z" fill="#000"/></g></svg>

<svg width="24" height="24" viewBox="0 0 24 24" fill="none" xmlns="http://www.w3.org/2000/svg">
<g clip-path="url(#clip0_1432_8795)">
<path d="M7.5 6.75V0H16.5V6.75H7.5ZM16.5 10.5H24V24H0V10.5H7.5V17.25H16.5V10.5Z" fill="black"/>
</g>
<defs>
<clipPath id="clip0_1432_8795">
<rect width="24" height="24" fill="white"/>
</clipPath>
</defs>
</svg>
